Origami/16x16/apps/reddit.svg

<svg width="16" height="16" version="1.1" viewBox="0 0 4.23 4.23" xmlns="http://www.w3.org/2000/svg">
 <g transform="translate(0,-292.76666)">
  <circle cx="2.117" cy="294.883" r="2.117" style="fill:#ff6a33"/>
  <path transform="matrix(.26458333 0 0 .26458333 0 292.76666)" d="m8.5 2.9980469a0.50004998 0.50004998 0 0 0 -0.046875 0.0019531 0.50004998 0.50004998 0 0 0 -0.4511719 0.4277344l-0.3652343 2.5878906a3.9999998 3.5 0 0 0 -2.8339844 1.3886719 0.99999996 0.99999996 0 0 0 -0.8027344 -0.4042969 0.99999996 0.99999996 0 0 0 -1 1 0.99999996 0.99999996 0 0 0 1 1 0.99999996 0.99999996 0 0 0 0.046875 -0.0019531 3.9999998 3.5 0 0 0 -0.046875 0.5019531 3.9999998 3.5 0 0 0 4 3.5 3.9999998 3.5 0 0 0 4 -3.5 3.9999998 3.5 0 0 0 -0.044922 -0.5019531 0.99999996 0.99999996 0 0 0 0.044922 0.0019531 0.99999996 0.99999996 0 0 0 1 -1 0.99999996 0.99999996 0 0 0 -1 -1 0.99999996 0.99999996 0 0 0 -0.802734 0.4042969 3.9999998 3.5 0 0 0 -2.5546879 -1.3535157l0.28125-1.9570312 1.1308599 0.2285156a0.99999996 0.99999996 0 0 0 0.945312 0.6777344 0.99999996 0.99999996 0 0 0 1 -1 0.99999996 0.99999996 0 0 0 -1 -1 0.99999996 0.99999996 0 0 0 -0.75 0.3398438l-1.6503906-0.3320313a0.50004998 0.50004998 0 0 0 -0.0996094 -0.0097656zm-2.5 5.0019531h0.5 0.5v0.5 0.5h-0.5-0.5v-0.5-0.5zm3 0h0.5 0.5v0.5 0.5h-0.5-0.5v-0.5-0.5zm-2.9980469 1.9902344a0.50004998 0.50004998 0 0 1 0.4199219 0.2363276s0.4465685 0.745155 1.5878906 0.775391c1.1166512 0.027704 1.5644532-0.759765 1.5644532-0.759765a0.50006639 0.50006639 0 1 1 0.8554692 0.517578c-1e-6 0-0.8169762 1.280675-2.4433599 1.240234-1.601712-0.041575-2.40625-1.226563-2.40625-1.226562a0.50004998 0.50004998 0 0 1 0.421875 -0.7832036z" style="fill:#ffffff"/>
 </g>
</svg>

<svg xmlns="http://www.w3.org/2000/svg" width="16" height="16" version="1.1" viewBox="0 0 4.23 4.23">
 <g transform="translate(0,-292.76666)">
  <circle style="fill:#ff6a33" cx="2.117" cy="294.883" r="2.117"/>
  <path style="fill:#ffffff" d="M 8.5 2.9980469 A 0.50004998 0.50004998 0 0 0 8.453125 3 A 0.50004998 0.50004998 0 0 0 8.0019531 3.4277344 L 7.6367188 6.015625 A 3.9999998 3.5 0 0 0 4.8027344 7.4042969 A 0.99999996 0.99999996 0 0 0 4 7 A 0.99999996 0.99999996 0 0 0 3 8 A 0.99999996 0.99999996 0 0 0 4 9 A 0.99999996 0.99999996 0 0 0 4.046875 8.9980469 A 3.9999998 3.5 0 0 0 4 9.5 A 3.9999998 3.5 0 0 0 8 13 A 3.9999998 3.5 0 0 0 12 9.5 A 3.9999998 3.5 0 0 0 11.955078 8.9980469 A 0.99999996 0.99999996 0 0 0 12 9 A 0.99999996 0.99999996 0 0 0 13 8 A 0.99999996 0.99999996 0 0 0 12 7 A 0.99999996 0.99999996 0 0 0 11.197266 7.4042969 A 3.9999998 3.5 0 0 0 8.6425781 6.0507812 L 8.9238281 4.09375 L 10.054688 4.3222656 A 0.99999996 0.99999996 0 0 0 11 5 A 0.99999996 0.99999996 0 0 0 12 4 A 0.99999996 0.99999996 0 0 0 11 3 A 0.99999996 0.99999996 0 0 0 10.25 3.3398438 L 8.5996094 3.0078125 A 0.50004998 0.50004998 0 0 0 8.5 2.9980469 z M 6 8 L 6.5 8 L 7 8 L 7 8.5 L 7 9 L 6.5 9 L 6 9 L 6 8.5 L 6 8 z M 9 8 L 9.5 8 L 10 8 L 10 8.5 L 10 9 L 9.5 9 L 9 9 L 9 8.5 L 9 8 z M 6.0019531 9.9902344 A 0.50004998 0.50004998 0 0 1 6.421875 10.226562 C 6.421875 10.226562 6.8684435 10.971717 8.0097656 11.001953 C 9.1264168 11.029657 9.5742188 10.242188 9.5742188 10.242188 A 0.50006639 0.50006639 0 1 1 10.429688 10.759766 C 10.429687 10.759766 9.6127118 12.040441 7.9863281 12 C 6.3846161 11.958425 5.5800781 10.773437 5.5800781 10.773438 A 0.50004998 0.50004998 0 0 1 6.0019531 9.9902344 z" transform="matrix(0.26458333,0,0,0.26458333,0,292.76666)"/>
 </g>
</svg>
